X:1
T:Beare Island Reel, The
M:C|
L:1/8
C:Finbar Dwyer
R:Slow reel
D:Kevin Burke and M=EDche=E1l =D3 Domhnaill: Portland
Z:Devin McCabe
K:EDor
EB^GB AGEc| dBcA Beec| d2fd AFDF| GEFD EDB,A,|
!B,EEF GFGA| BdAd (3Bcd ef| g2 fg efge|1dBAF E2 ED:|2dBAF E4|
!|:Be e2 gefd| (3Bcd AG FD D2| Be e2 gefd| (3efe ^df e2ef|
!edBc dBed| BcdB AFDF| GB ~B2 AFDF|1 GEFD E4:|2 GEFD E2 ED||
